arkscan/icons/bitladon.svg

<svg viewBox="0 0 20 20" fill="none" xmlns="http://www.w3.org/2000/svg">
  <g clip-path="url(#clip0_3072_38881)">
    <path
      d="M11.6243 9.91667H11.7493C12.166 9.91667 12.541 9.58333 12.541 9.125V8.375C12.541 7.95833 12.2077 7.58333 11.7493 7.58333H10.9993V6.375H10.291V7.58333H9.37435V6.375H8.66602V7.58333H7.58268C7.49935 7.58333 7.41602 7.66667 7.41602 7.75V12.1667C7.41602 12.25 7.49935 12.3333 7.58268 12.3333H8.66602V13.4167H9.37435V12.3333H10.291V13.4167H10.9993V12.3333H11.6243C12.166 12.3333 12.5827 11.9167 12.5827 11.375V10.8333C12.6243 10.3333 12.166 9.91667 11.6243 9.91667ZM8.45768 8.375H11.2077C11.416 8.375 11.5827 8.54167 11.5827 8.75V9.16667C11.5827 9.375 11.416 9.54167 11.2077 9.54167H8.45768V8.375ZM11.6243 11.1667C11.6243 11.4167 11.4577 11.5833 11.2077 11.5833H8.45768V10.3333H11.2077C11.4577 10.3333 11.6243 10.5 11.6243 10.75V11.1667Z"
      fill="#454FBC" />
    <path
      d="M10 0V0.708333C15.125 0.708333 19.2917 4.875 19.2917 10C19.2917 15.125 15.125 19.2917 10 19.2917C4.875 19.2917 0.708333 15.125 0.708333 10H0C0 15.5417 4.45833 20 10 20C15.5417 20 20 15.5417 20 10C20 4.45833 15.5417 0 10 0Z"
      fill="#454FBC" />
    <path
      d="M17.0423 9.99967C17.0423 13.8747 13.8757 17.0413 10.0007 17.0413C6.12565 17.0413 2.95898 13.8747 2.95898 9.99967C2.95898 6.12467 6.08398 2.99967 9.95898 2.95801V2.20801C5.66732 2.24967 2.20898 5.74967 2.20898 10.0413C2.25065 14.333 5.75065 17.7913 10.0423 17.7913C14.334 17.7497 17.7923 14.2913 17.7923 9.99967H17.0423Z"
      fill="#454FBC" />
    <path
      d="M10 4.1665C8.45833 4.1665 6.95833 4.7915 5.875 5.87484L6.375 6.37484C8.41667 4.4165 11.6667 4.5415 13.625 6.58317C15.5 8.5415 15.5 11.6248 13.625 13.6248L14.125 14.1248C16.4167 11.8332 16.4167 8.1665 14.125 5.87484C13.0417 4.7915 11.5417 4.1665 10 4.1665ZM13.625 13.6248L14.125 14.1248L13.625 13.6248ZM5.875 5.87484L6.375 6.37484L5.875 5.87484Z"
      fill="#454FBC" />
  </g>
  <defs>
    <clipPath id="clip0_3072_38881">
      <rect width="20" height="20" fill="white" />
    </clipPath>
  </defs>
</svg>

<svg viewBox="0 0 20 20" fill="none" xmlns="http://www.w3.org/2000/svg"><g clip-path="url(#a)" fill="#454FBC"><path d="M11.624 9.917h.125a.791.791 0 0 0 .792-.792v-.75a.791.791 0 0 0-.792-.792H11V6.375h-.708v1.208h-.917V6.375h-.708v1.208H7.583a.18.18 0 0 0-.167.167v4.417a.18.18 0 0 0 .167.166h1.083v1.084h.708v-1.084h.917v1.084h.708v-1.084h.625a.943.943 0 0 0 .959-.958v-.542c.041-.5-.417-.916-.959-.916ZM8.458 8.375h2.75c.208 0 .375.167.375.375v.417a.373.373 0 0 1-.375.375h-2.75V8.375Zm3.166 2.792c0 .25-.166.416-.416.416h-2.75v-1.25h2.75c.25 0 .416.167.416.417v.417Z"/><path d="M10 0v.708c5.125 0 9.292 4.167 9.292 9.292S15.125 19.292 10 19.292.708 15.125.708 10H0c0 5.542 4.458 10 10 10s10-4.458 10-10S15.542 0 10 0Z"/><path d="M17.042 10c0 3.875-3.166 7.041-7.041 7.041-3.875 0-7.042-3.166-7.042-7.041 0-3.875 3.125-7 7-7.042v-.75c-4.292.042-7.75 3.542-7.75 7.833.042 4.292 3.542 7.75 7.833 7.75 4.292-.041 7.75-3.5 7.75-7.791h-.75Z"/><path d="M10 4.167a5.87 5.87 0 0 0-4.125 1.708l.5.5c2.042-1.958 5.292-1.833 7.25.208 1.875 1.958 1.875 5.042 0 7.042l.5.5a5.81 5.81 0 0 0 0-8.25A5.87 5.87 0 0 0 10 4.167Zm3.625 9.458.5.5-.5-.5Zm-7.75-7.75.5.5-.5-.5Z"/></g><defs><clipPath id="a"><path fill="#fff" d="M0 0h20v20H0z"/></clipPath></defs></svg>
